X: 2328
T: BEAUX OF OAK HILL
%R: hornpipe, reel
B: James Kerr "Merry Melodies" v.2 p.36 #328
Z: 2016 John Chambers <jc:trillian.mit.edu>
M: C
L: 1/8
K: D
|: (dB) |\
AFDF A2(dc) | BABd e2(de) |\
[1,3 fgfe fgfe | defd B2 :|\
[2,4 fgfe dfag | f2d2d2 ::\
(fg) |\
afdf a2(gf) |
gfga b2(ag) |\
fgag fgfe | defd B2(dB) |\
AFDF A2(dc) | BABd e2(de) |\
fgfe dfag | f2d2d2 :|

%%sep 1 1 500
%%sep 1 1 500

